UI/Tools/SVG/add-road-sign_outline_24px.svg

<svg width="24" height="24" viewBox="0 0 24 24" fill="none" xmlns="http://www.w3.org/2000/svg">
<path d="M12 21.31V22H9.99998V17.93C9.54908 17.8772 9.10392 17.7835 8.66998 17.65C7.67066 17.3455 6.74007 16.8496 5.92998 16.19L5.33998 15.66C4.59731 14.9165 4.0084 14.034 3.60689 13.0628C3.20539 12.0916 2.99916 11.0509 2.99998 10C2.98479 9.73689 2.98479 9.47312 2.99998 9.21001C3.13048 7.90582 3.57667 6.65305 4.29998 5.56001C4.59647 5.12448 4.93112 4.7162 5.29998 4.34001C6.04297 3.5962 6.92528 3.00612 7.89646 2.60353C8.86765 2.20093 9.90866 1.99371 10.96 1.99371C12.0113 1.99371 13.0523 2.20093 14.0235 2.60353C14.9947 3.00612 15.877 3.5962 16.62 4.34001C16.9889 4.7162 17.3235 5.12448 17.62 5.56001C18.3716 6.64547 18.8455 7.89877 19 9.21001C19.0152 9.47312 19.0152 9.73689 19 10C19 10.7581 18.8922 11.5123 18.68 12.24C18.1335 12.0841 17.5683 12.0034 17 12H16.65C16.8756 11.3571 16.9938 10.6814 17 10C17.0102 9.80347 17.0102 9.60654 17 9.41001C16.8625 8.02996 16.2512 6.74017 15.27 5.76001C14.6424 5.12566 13.8813 4.63927 13.042 4.33626C12.2027 4.03325 11.3064 3.92126 10.4184 4.00844C9.53033 4.09561 8.67292 4.37976 7.90857 4.84019C7.14423 5.30062 6.4922 5.92574 5.99998 6.67001C5.44635 7.48718 5.10286 8.42832 4.99998 9.41001C4.98976 9.60654 4.98976 9.80347 4.99998 10C4.99682 10.7882 5.15084 11.5692 5.45304 12.2972C5.75523 13.0252 6.19954 13.6857 6.75998 14.24C6.8993 14.3812 7.04619 14.5147 7.19998 14.64C7.8071 15.1394 8.5073 15.5133 9.25998 15.74C9.58688 15.8378 9.92138 15.908 10.26 15.95L11 16H11.35C11.0363 16.8744 10.9317 17.8101 11.0446 18.7322C11.1574 19.6543 11.4846 20.5371 12 21.31ZM21 17H18V14H16V17H13V19H16V22H18V19H21V17ZM15 9.00001H6.99998V11H15V9.00001Z" fill="#0F1621"/>
</svg>

<svg xmlns="http://www.w3.org/2000/svg" width="24" height="24" viewBox="0 0 24 24"><rect width="24" height="24" style="fill:none"/><path d="M12,21.31V22H10V17.93a7.49,7.49,0,0,1-1.33-.28,8.06,8.06,0,0,1-2.74-1.46l-.59-.53A8,8,0,0,1,3,10a6.85,6.85,0,0,1,0-.79,8.07,8.07,0,0,1,1.3-3.65,8.88,8.88,0,0,1,1-1.22,8,8,0,0,1,11.32,0,8.88,8.88,0,0,1,1,1.22A8.07,8.07,0,0,1,19,9.21,6.85,6.85,0,0,1,19,10a8,8,0,0,1-.32,2.24A6.26,6.26,0,0,0,17,12l-.35,0A6.21,6.21,0,0,0,17,10a5.68,5.68,0,0,0,0-.59,6,6,0,0,0-1.73-3.65A6,6,0,0,0,6,6.67,6,6,0,0,0,5,9.41,5.68,5.68,0,0,0,5,10a5.93,5.93,0,0,0,1.76,4.24,5.48,5.48,0,0,0,.44.4,5.94,5.94,0,0,0,2.06,1.1,6.12,6.12,0,0,0,1,.21L11,16l.35,0A5.95,5.95,0,0,0,12,21.31ZM21,17H18V14H16v3H13v2h3v3h2V19h3ZM15,9H7v2h8Z"/></svg>
